icons/bag-list.svg

<svg xmlns="http://www.w3.org/2000/svg" width="24" height="24" viewBox="0 0 24 24">
  <path d="M14,2 C15.5976809,2 16.9036609,3.24891996 16.9949073,4.82372721 L17,5 L17,6 L20,6 C21.1045695,6 22,6.8954305 22,8 L22,20 C22,21.1045695 21.1045695,22 20,22 L4,22 C2.8954305,22 2,21.1045695 2,20 L2,8 C2,6.8954305 2.8954305,6 4,6 L7,6 L7,5 C7,3.40231912 8.24891996,2.09633912 9.82372721,2.00509269 L10,2 L14,2 Z M16,15 L8,15 L7.88337887,15.0067277 C7.38604019,15.0644928 7,15.4871642 7,16 C7,16.5522847 7.44771525,17 8,17 L8,17 L16,17 L16.1166211,16.9932723 C16.6139598,16.9355072 17,16.5128358 17,16 C17,15.4477153 16.5522847,15 16,15 L16,15 Z M16,11 L8,11 L7.88337887,11.0067277 C7.38604019,11.0644928 7,11.4871642 7,12 C7,12.5522847 7.44771525,13 8,13 L8,13 L16,13 L16.1166211,12.9932723 C16.6139598,12.9355072 17,12.5128358 17,12 C17,11.4477153 16.5522847,11 16,11 L16,11 Z M14,4 L10,4 C9.48716416,4 9.06449284,4.38604019 9.00672773,4.88337887 L9,5 L9,6 L15,6 L15,5 C15,4.48716416 14.6139598,4.06449284 14.1166211,4.00672773 L14,4 Z"/>
</svg>

<svg xmlns="http://www.w3.org/2000/svg" viewBox="0 0 24 24">
  <path d="M14 2a3 3 0 0 1 3 2.82V6h3a2 2 0 0 1 2 2v12a2 2 0 0 1-2 2H4a2 2 0 0 1-2-2V8c0-1.1.9-2 2-2h3V5a3 3 0 0 1 2.82-3H14zm2 13H7.88A1 1 0 0 0 8 17h8.12a1 1 0 0 0-.12-2zm0-4H7.88A1 1 0 0 0 8 13h8.12a1 1 0 0 0-.12-2zm-2-7h-4a1 1 0 0 0-1 .88V6h6V5a1 1 0 0 0-.88-1H14z"/>
</svg>
